include/LD/assets/icons/utility/new_window.svg

<?xml version="1.0"?><svg xmlns="http://www.w3.org/2000/svg" width="52" height="52" viewBox="0 0 52 52"><g fill="#fff"><path d="m48.7 2h-19.1c-0.8 0-1.6 0.5-1.6 1.3v3c0 0.8 0.7 1.7 1.6 1.7h7.9c0.9 0 1.4 1 0.7 1.6l-17 17c-0.6 0.6-0.6 1.5 0 2.1l2.1 2.1c0.6 0.6 1.5 0.6 2.1 0l17-17c0.6-0.6 1.6-0.2 1.6 0.7v7.9c0 0.8 0.8 1.7 1.6 1.7h2.9c0.8 0 1.5-0.9 1.5-1.7v-19c0-0.9-0.5-1.4-1.3-1.4z m-12.4 23.5l-3.4 3.5c-0.6 0.6-0.9 1.3-0.9 2.1v11.4c0 0.8-0.7 1.5-1.5 1.5h-21c-0.8 0-1.5-0.7-1.5-1.5v-21c0-0.8 0.7-1.5 1.5-1.5h11.5c0.8 0 1.6-0.3 2.1-0.9l3.4-3.4c0.6-0.6 0.2-1.7-0.7-1.7h-19.8c-2.2 0-4 1.8-4 4v28c0 2.2 1.8 4 4 4h28c2.2 0 4-1.8 4-4v-19.8c0-0.9-1.1-1.3-1.7-0.7z"></path></g></svg>

<svg xmlns="http://www.w3.org/2000/svg" x="0px" y="0px"
	 width="52px" height="52px" viewBox="0 0 52 52" enable-background="new 0 0 52 52" xml:space="preserve">
<g>
	<path fill="#FFFFFF" d="M48.7,2H29.6C28.8,2,28,2.5,28,3.3v3C28,7.1,28.7,8,29.6,8h7.9c0.9,0,1.4,1,0.7,1.6l-17,17
		c-0.6,0.6-0.6,1.5,0,2.1l2.1,2.1c0.6,0.6,1.5,0.6,2.1,0l17-17c0.6-0.6,1.6-0.2,1.6,0.7v7.9c0,0.8,0.8,1.7,1.6,1.7h2.9
		c0.8,0,1.5-0.9,1.5-1.7v-19C50,2.5,49.5,2,48.7,2z"/>
	<path fill="#FFFFFF" d="M36.3,25.5L32.9,29c-0.6,0.6-0.9,1.3-0.9,2.1v11.4c0,0.8-0.7,1.5-1.5,1.5h-21C8.7,44,8,43.3,8,42.5v-21
		C8,20.7,8.7,20,9.5,20H21c0.8,0,1.6-0.3,2.1-0.9l3.4-3.4c0.6-0.6,0.2-1.7-0.7-1.7H6c-2.2,0-4,1.8-4,4v28c0,2.2,1.8,4,4,4h28
		c2.2,0,4-1.8,4-4V26.2C38,25.3,36.9,24.9,36.3,25.5z"/>
</g>
</svg>
